assets/img/braze_icons/presentation-chart-01.svg

<svg fill="none" height="24" viewBox="0 0 24 24" width="24" xmlns="http://www.w3.org/2000/svg"><path clip-rule="evenodd" d="m1 3c0-.55228.44772-1 1-1h20c.5523 0 1 .44772 1 1s-.4477 1-1 1v7.2413c0 .805 0 1.4693-.0442 2.0105-.0459.5621-.1445 1.0788-.3918 1.5642-.3835.7526-.9954 1.3645-1.748 1.748-.4854.2473-1.0021.3459-1.5642.3918-.5412.0442-1.2055.0442-2.0105.0442h-1.4792l3.8781 3.2318c.4243.3535.4816.9841.128 1.4084-.3535.4243-.9841.4816-1.4084.128l-4.3598-3.6332v2.865c0 .5523-.4477 1-1 1s-1-.4477-1-1v-2.8649l-4.35979 3.6331c-.42428.3536-1.05484.2963-1.40841-.128-.35356-.4243-.29624-1.0549.12804-1.4084l3.87814-3.2318h-1.47925c-.80499 0-1.46935 0-2.01055-.0442-.5621-.0459-1.07881-.1445-1.56414-.3918-.75265-.3835-1.36457-.9954-1.74806-1.748-.2473-.4854-.34586-1.0021-.39179-1.5642-.04421-.5412-.0442-1.2055-.04419-2.0105v-7.2413c-.55228 0-1-.44772-1-1zm11 3c.5523 0 1 .44772 1 1v5c0 .5523-.4477 1-1 1s-1-.4477-1-1v-5c0-.55228.4477-1 1-1zm-4 2c.55228 0 1 .44772 1 1v3c0 .5523-.44772 1-1 1s-1-.4477-1-1v-3c0-.55228.44772-1 1-1zm9 3c0-.5523-.4477-1-1-1s-1 .4477-1 1v1c0 .5523.4477 1 1 1s1-.4477 1-1z" fill="#801ed7" fill-rule="evenodd"/></svg>

<svg width="24" height="24" viewBox="0 0 24 24" fill="none" xmlns="http://www.w3.org/2000/svg">
<path fill-rule="evenodd" clip-rule="evenodd" d="M1 3C1 2.44772 1.44772 2 2 2H22C22.5523 2 23 2.44772 23 3C23 3.55228 22.5523 4 22 4V11.2413C22 12.0463 22 12.7106 21.9558 13.2518C21.9099 13.8139 21.8113 14.3306 21.564 14.816C21.1805 15.5686 20.5686 16.1805 19.816 16.564C19.3306 16.8113 18.8139 16.9099 18.2518 16.9558C17.7106 17 17.0463 17 16.2413 17H14.7621L18.6402 20.2318C19.0645 20.5853 19.1218 21.2159 18.7682 21.6402C18.4147 22.0645 17.7841 22.1218 17.3598 21.7682L13 18.135V21C13 21.5523 12.5523 22 12 22C11.4477 22 11 21.5523 11 21V18.1351L6.64021 21.7682C6.21593 22.1218 5.58537 22.0645 5.2318 21.6402C4.87824 21.2159 4.93556 20.5853 5.35984 20.2318L9.23798 17H7.75873C6.95374 17 6.28938 17 5.74818 16.9558C5.18608 16.9099 4.66937 16.8113 4.18404 16.564C3.43139 16.1805 2.81947 15.5686 2.43598 14.816C2.18868 14.3306 2.09012 13.8139 2.04419 13.2518C1.99998 12.7106 1.99999 12.0463 2 11.2413L2 4C1.44772 4 1 3.55228 1 3ZM12 6C12.5523 6 13 6.44772 13 7V12C13 12.5523 12.5523 13 12 13C11.4477 13 11 12.5523 11 12V7C11 6.44772 11.4477 6 12 6ZM8 8C8.55228 8 9 8.44772 9 9V12C9 12.5523 8.55228 13 8 13C7.44772 13 7 12.5523 7 12V9C7 8.44772 7.44772 8 8 8ZM17 11C17 10.4477 16.5523 10 16 10C15.4477 10 15 10.4477 15 11V12C15 12.5523 15.4477 13 16 13C16.5523 13 17 12.5523 17 12V11Z" fill="#801ED7"/>
</svg>
